dist/img/home/intro_card_3.svg

<svg width="75" height="74" viewBox="0 0 75 74" fill="none" xmlns="http://www.w3.org/2000/svg">
<path d="M53.9734 13.5667H57.3822C59.2488 13.5667 60.7666 15.0673 60.7666 16.9265V65.7069C60.7666 67.5599 59.2549 69.0667 57.3822 69.0667H17.2842C15.4177 69.0667 13.8999 67.566 13.8999 65.7069V16.9265C13.8999 15.0734 15.4115 13.5667 17.2842 13.5667H20.6931M26.3173 10.2859V17.3274H48.3859V10.2859H42.7188C42.7188 7.35141 40.2831 4.93335 37.3271 4.93335C34.3712 4.93335 31.9354 7.35141 31.9354 10.2859H26.3112H26.3173Z" stroke="#6C757D" stroke-width="2" stroke-linecap="round" stroke-linejoin="round"/>
<path d="M35.1691 34.7373V39.6456H21.306V26.1295H30.0852M25.3732 30.6147L29.2296 34.5801L37.3639 24.6667M43.3035 29.8833H54.5998M43.3035 35.783H49.832M30.079 48.1506H21.2998V61.6667H35.1629V56.7583M25.367 52.6358L29.2234 56.6012L37.3577 46.6878M43.2973 51.9044H54.5936M43.2973 57.8041H49.8258" stroke="#6B3D90" stroke-width="2" stroke-linecap="round" stroke-linejoin="round"/>
</svg>

<svg width="75" height="74" viewBox="0 0 75 74" fill="none" xmlns="http://www.w3.org/2000/svg"><path d="M53.973 13.567h3.41c1.866 0 3.384 1.5 3.384 3.36v48.78c0 1.853-1.512 3.36-3.385 3.36H17.284c-1.866 0-3.384-1.501-3.384-3.36v-48.78c0-1.854 1.511-3.36 3.384-3.36h3.41m5.623-3.281v7.041h22.069v-7.041h-5.667c0-2.935-2.436-5.353-5.392-5.353-2.956 0-5.392 2.418-5.392 5.353h-5.624.006z" stroke="#6C757D" stroke-width="2" stroke-linecap="round" stroke-linejoin="round"/><path d="M35.17 34.737v4.909H21.305V26.129h8.78m-4.713 4.486l3.857 3.965 8.134-9.913m5.94 5.216H54.6m-11.297 5.9h6.529M30.079 48.151h-8.78v13.516h13.864v-4.909m-9.796-4.122l3.856 3.965 8.135-9.913m5.94 5.216h11.296m-11.297 5.9h6.529" stroke="#6B3D90" stroke-width="2" stroke-linecap="round" stroke-linejoin="round"/></svg>
